X:1
T:Title
%%score 1 2
L:1/8
Q:1/4=100
M:3/2
K:G
V:1 treble nm="Strings 1, Soprano"
V:2 bass nm="Strings 1, Bass"
V:1
 z4 z2 [DG]2 [GB]2 [EA]2 | [DG]6 [DF]2 G2 [FA]2 | [GB]6 [DG]2 [GB]2 [Gd]2 | [GB]6 G2 [EA]2 [GB]2 | %4
w: 1.~A~ pre cious~|truth~ to~ us~ is~|giv'n,~ From~ God's~ own~|Son~ that~ came~ from~|
 [FA]6 [GB]2 [GB]2 [EA]2 | [DG]6 G2 [FA]2 [GB]2 | [FA]6 [DG]2 [DG]2 [GB]2 | [Gd]6 G2 [GB]2 [FA]2 | %8
w: Heav'n;~ And~ on~ His~|word~ we~ can~ re|ly;~ He~ that~ be|lieves~ shall~ nev er~|
 [DG]6 [GB]2 [GB]2 [EA]2 | [DG]6 [B,D]2 [B,E]2 [DG]2 | [GB]6 [DG]2 [GB]2 [Gd]2 | %11
w: die.~ * * *|||
 [GB]6 G2 [EA]2 [GB]2 | [FA]6 [GB]2 [GB]2 [EA]2 | [DG]6 [B,D]2 [B,E]2 [DG]2 | %14
w: |||
 [GB]6 [DG]2 [DG]2 [GB]2 | [Gd]6 [GB]2 [GB]2 [FA]2 | [DG]8 z4 |] %17
w: |||
V:2
 z4 z2 [G,B,]2 [G,D]2 [G,C]2 | [G,B,]6 [D,A,]2 [B,,D]2 [D,D]2 | [G,D]6 [G,B,]2 [G,D]2 [G,B,]2 | %3
 [G,D]6 [B,,D]2 [A,,^C]2 [A,,C]2 | [D,D]6 [G,D]2 [G,D]2 [G,C]2 | [G,B,]6 [B,D]2 [A,D]2 [G,D]2 | %6
 [D,D]6 [G,B,]2 [G,B,]2 [G,D]2 | [G,B,]6 [E,B,]2 [D,D]2 [D,C]2 | [G,,B,]6 [G,D]2 [G,D]2 [G,C]2 | %9
 [G,B,]6 G,2 G,2 [G,B,]2 | [G,D]6 [G,B,]2 [G,D]2 [G,B,]2 | [G,D]6 [B,,D]2 [A,,^C]2 [A,,C]2 | %12
 [D,D]6 [G,D]2 [G,D]2 [G,C]2 | [G,B,]6 G,2 G,2 [G,B,]2 | [G,D]6 [G,B,]2 [G,B,]2 [G,D]2 | %15
 [G,B,]6 [G,D]2 [D,D]2 [D,C]2 | [G,,B,]8 z4 |] %17

